X:8266
T:Jota (II)
C:Trad.
Z:puede ser tempo: 3/8=100 en el penltimo comps
M:3/8
L:1/8
Q:3/8=80
K:Bb
|: d3/2d/d|dcB|cBe-|e d2|dBA-|A G2|B2 A-|A3 :|
Q:3/8=72
|def|fef|g2 f|e3-|e3-|e3|g3/2g/g|gfe|fde-|e c2|dBc-|c A2|B2 A|F3-|F3|
|def|fef|g2 f|e3-|e3-|e3|g3/2g/g|gfe|fde-|e c2|dBc-|c d2|f2 e|z e/d/c/B/|
|: cBc|BcB|d c2|z d/c/B/A/|BAB|ABA|c B2|z e/d/c/B/|
|  cBe|gde|g c2-|cf/e/d/c/|BeG|BAF|EGB|1 ee/d/c/B/ :|2 e z2|
